X: 0834
T: PADDY CAREY
B: Oliver Ditson "The Boston Collection of Instrumental Music" 1910 p.83 #4
F: http://conquest.imslp.info/files/imglnks/usimg/8/8f/IMSLP175643-PMLP309456-bostoncollection00bost_bw.pdf
%: 2012 John Chambers <jc:trillian.mit.edu>
M: 6/8
L: 1/8
K: D
[|\
A2d dcd | f2d dcd | B2e e^de | g2e c2A |\
A2d dcd | f2d dcd | cBA ABc | def e2d ||
||\
d2f g2b | a2b afd | d2f g2b | afd e2f |\
d2f g2b | a2b afd | cBA ABc | def e2d |]

%%sep 1 1 500
%%sep 1 1 500
